**kern
*part1
*staff1
*clefC4
1%0r
=2
1%0r
=3
1%0r
=4
1%0r
=5
1%0r
=6
1%0r
=7
1%0r
=8
4c
32gL
16.eJ
32dL
16.cJ
4c
8B
8c
=9
32dL
16.BJ
8c
8G
8e
8.dL
32e
32fJ
8e
8G
=10
4c
32gL
16.e-J
32dL
16.cJ
4c
8B
=-
*-
